X:1
T:Title
%%score { ( 1 3 ) | ( 2 4 ) }
L:1/8
M:6/8
K:G
V:1 treble nm="Grand Piano"
V:3 treble 
V:2 bass 
V:4 bass 
V:1
 z3 z2[Q:1/4=93] [B,D] | [B,D]2 [B,G] [B,G]2 [CA] | B3 B2 B | [Ec]>[Ec][Ec] [EG]2 [Ec] | %4
[M:5/8] [DB]-[DB]- [DB]3 |[M:1/8] [B,D] |[M:3/4] [B,D]2 [B,G] [B,G]2 [CA] | B3 B2 [DB] | %8
 [^CA]>[CB] [CA] [CG]2 [CE] |[M:5/8] [CA]-[CA]- [CA]3 |[M:1/8] [DB] | %11
[M:3/4] [DB]>[CA] [B,G][K:bass] [G,B,]2 [A,C] | D6[K:treble] | G>F G [GB]2 [FA] | %14
[M:5/8] [FA]-[FA]- [FA]3 |[M:1/8] D |[M:3/4] [B,D]>[CE] [CF] [B,G]2 [Ge] | %17
[M:7/8] [Fd]3 [Ec]3 [Ec] |[M:3/4] [DB]>[Ec] B B2 A |[M:5/8] G-G- G3 |] %20
V:2
 z3 z2 [G,,G,] | [G,,G,]2 [G,,D,] [G,,D,]2 [G,,G,] | [G,D]3 [G,D]2 [G,D] | %3
 [C,G,]>[C,G,][C,G,] [C,C]2 [C,G,] |[M:5/8] [G,,G,]-[G,,G,]- [G,,G,]3 |[M:1/8] [G,,G,] | %6
[M:3/4] [G,,G,]2 [G,,D,] [G,,D,]2 [G,,G,] | [G,D]3 [G,D]2 [G,,G,] | %8
 [A,,E,]>[A,,E,] [A,,E,] [A,,E,]2 [A,,G,] |[M:5/8] [D,F,]-[D,F,]- [D,F,]3 |[M:1/8] [G,,G,] | %11
[M:3/4] [G,,G,]>[G,,G,] [G,,G,] [G,,D,]2 [G,,D,] | [G,,G,]2 [G,,G,] [G,,G,]2 [G,B,] | %13
 [E,B,E]>[E,B,^D] [E,B,E] [D,=D]2 [D,D] |[M:5/8] [D,D]2 D, D,2 |[M:1/8] [D,F,C] | %16
[M:3/4] [G,,G,]>[G,,G,] [G,,G,] [G,,G,]2 [G,,G,] |[M:7/8] [B,,G,]3 [C,G,]3 [C,G,] | %18
[M:3/4] [D,G,]>[D,G,] [D,G,D] [D,F,D]2 [D,F,C] |[M:5/8] z2 E, D,2 |] %20
V:3
 x6 | x6 | x6 | x6 |[M:5/8] x5 |[M:1/8] x |[M:3/4] x6 | x6 | x6 |[M:5/8] x5 |[M:1/8] x | %11
[M:3/4] x3[K:bass] x3 | B,2 B, B,2[K:treble] D | x6 |[M:5/8] z2 D D2 |[M:1/8] x |[M:3/4] x6 | %17
[M:7/8] x7 |[M:3/4] x6 |[M:5/8] [G,B,]2 C B,2 |] %20
V:4
 x6 | x6 | x6 | x6 |[M:5/8] x5 |[M:1/8] x |[M:3/4] x6 | x6 | x6 |[M:5/8] x5 |[M:1/8] x | %11
[M:3/4] x6 | x6 | x6 |[M:5/8] x5 |[M:1/8] x |[M:3/4] x6 |[M:7/8] x7 |[M:3/4] x6 | %19
[M:5/8] G,,-G,,- G,,3 |] %20

